X: 152
T: Snowshoer's Reel
T: reel des Raquetteurs
T: la Tuque Bleue
B: NEFR #152
F: http://www.ibiblio.org/fiddlers/SMA_SNY.htm
N: A variant of O'Neill's "The Blue Garters"
N: Writing out each 4-bar phrase twice, with repeats, is a bit silly, and wastes space.
M: C|
L: 1/8
K: F
|: f2 cf a2 gf | ec eg bg eg | f2 cf a2 gf | ed cB AF F2 |
|  f2 cf a2 gf | ec eg bg eg | f2 cf a2 gf | ed cB AF F2 :|
|: AF cF AF GA | Bc dc BA GB | AF cF AF GA | Bd cB AF F2 |
|  AF cF AF GA | Bc dc BA GB | AF cF AF GA | Bd cB AF F2 :|
